X:93
T: SUSANNCHEN SPRANG ZUM THOR HINAUS
N: E0051A
O: Europa, Mitteleuropa, Deutschland, Hessen, Darmstadt
R: erzaehlendes Volks - Lied, Sage, Mord
M: 4/4
L: 1/8
K: A
E2 | A3AA2A2 | c3BA2z2 | z4
c4 | B4A4 | G4F4 | E3FE2
D2 | C2E2C2E2 | c3BA2
A2 | B4G4 | A4z2

@@@ Tune index: 3743
